!!!!SEGMENT: pl-kk--kk-i-756--001_gorczycki-grzegorz-gerwazy--recessit-pastor.krn
!!!cenid: 17xx:2448
!!!COM: Gorczycki, Grzegorz Gerwazy
!!!COM-rismID: pe30009207
!!!CDT: ~1666-1734/04/30
!!!CNT: Polish
!!!OTL: Recessit pastor
!!!PDT:
!!!AGN: Sacred
!!!YEC: Copyright 2022 Narodowy Instytut Fryderyka Chopina (https://polishscores.org)
!!!YEM: License CC-BY-4.0 (https://creativecommons.org/licenses/by/4.0)
!!!SMS-siglum: PL-Kk
!!!SMS-shelfmark: Kk.I.756
!!!SMS-shelfwork: 001 W
!!!SMS-variant: Tenor I: PL-Kk Kk.I.756: scans 0004-0005; Tenor II: PL-Kk Kk.I.756: scans 0011-0012
!!!SMS-altvar: Tenor I: PL-Kk Kk.I.756: scans 0007-0008; Tenor I: PL-Kk Kk.I.756: scans 0014-0015
!!!NIFC-rismSourceID: 1001158565
!!!NIFC-rismChildID: 1001158566
!!!NIFC-islandoraID: pl-kk:28080
!!!URL-pdf-islandora: https://repozytorium.nifc.pl/islandora/object/pl-kk:28080/datastream/PDF/view
!!!URL-scan: https://polish.musicsources.pl/pl/lokalizacje/galeria/rekopisy/7394/1 @EN{Scan on Polish Music Sources Website} @PL{Skany w portalu Dziedzictwo Muzyki Polskiej w otwartym dostępie}
!!!IIIF:
!!!ONB-nifc:
!!!AIN: 1 alto 1 bass 2 tenor
!!!key: F
**kern	**text	**kern	**text	**kern	**text	**kern	**text
*part4	*	*part3	*	*part2	*	*part1	*
*staff4	*	*staff3	*	*staff2	*	*staff1	*
*I"Bas	*	*I"Tenor IIgi	*	*I"Tenor Iy	*	*I"Alt	*
*I'B	*	*I'T II	*	*I'T I	*	*I'A	*
*Ibass	*	*Itenor	*	*Itenor	*	*Ialto	*
*ICvox	*	*ICvox	*	*ICvox	*	*ICvox	*
*clefF4	*	*clefGv2	*	*clefGv2	*	*clefG2	*
*k[b-]	*	*k[b-]	*	*k[b-]	*	*k[b-]	*
*F:	*	*F:	*	*F:	*	*F:	*
*M4/4	*	*M4/4	*	*M4/4	*	*M4/4	*
*met(c)	*	*met(c)	*	*met(c)	*	*met(c)	*
=1	=1	=1	=1	=1	=1	=1	=1
*MM240	*	*MM240	*	*MM240	*	*MM240	*
*	*	*2\right	*	*2\right	*	*	*
*	*	*2/left	*	*2/left	*	*	*
*	*	*4\right	*	*4\right	*	*	*
!	!	!	!	!LO:TX:t=P:problem=1d w nawiasie, 1A dopisane ołówkiem	!	!	!
1D	Re-	1F	Re-	1A 1d	Re-	1d	Re-
=2	=2	=2	=2	=2	=2	=2	=2
1AA	-ces-	1A	-ces-	1c#X	-ces-	1e	-ce-
=3	=3	=3	=3	=3	=3	=3	=3
2D\	.	2A/	.	2d\	.	2f/	.
2AA/	.	2G/	.	2c#X\	.	2e/	.
=4	=4	=4	=4	=4	=4	=4	=4
1BB-	.	1F	.	1d	.	1d	.
=5	=5	=5	=5	=5	=5	=5	=5
1AA;	sit	1A;	-sit	1c#X;	-sit	1e;,	-sit
=6	=6	=6	=6	=6	=6	=6	=6
2D\	Pa-	1A	Pa-	2d\	Pa-	2f/	Pa-
2C#X/	.	.	.	2A/	.	2e/	.
=7	=7	=7	=7	=7	=7	=7	=7
2D\	.	2A/	.	2d\	.	2f/	.
2BB-X/	.	2G#X/	.	2d\	.	2d/	.
=8	=8	=8	=8	=8	=8	=8	=8
1AA;	-stor	1A;	-stor	1c#X	-stor	1e;	-stor
!LO:LB:g=original	!	!LO:LB:g=original	!	!LO:LB:g=original	!	!	!
=9	=9	=9	=9	=9	=9	=9	=9
!	!	!LO:TX:a:t=1	!	!LO:TX:a:t=1	!	!	!
!LO:TX:a:t=1	!	!	!	!	!	!	!
1r	.	1r	.	1r	.	(2cn/	no-
.	.	.	.	.	.	4f/	.
.	.	.	.	.	.	4e/	.
=10	=10	=10	=10	=10	=10	=10	=10
!LO:TX:a:t=1	!	!	!	!	!	!	!
1r	.	2.B-\	No-	([2d\	No-	2d/	.
.	.	.	.	4d\]	.	4g/	.
.	.	4A/	.	4c\	.	4f/)	.
!	!	!	!	!	!	!	!LO:LB:g=original
=11	=11	=11	=11	=11	=11	=11	=11
1C	no-	2G/	.	1c	.	2e/	.
.	.	2A/	.	.	.	[2f/	.
=12	=12	=12	=12	=12	=12	=12	=12
1C	.	1G	.	1c)	.	2f/]	.
.	.	.	.	.	.	2e/	.
=13	=13	=13	=13	=13	=13	=13	=13
1F;	-ster	1A;	-ster	1c;	-ster	1f;	-ster
=15	=15	=15	=15	=15	=15	=15	=15
1D	fons	1F	fons	1A	fons	1d	fons
=16	=16	=16	=16	=16	=16	=16	=16
2C#X/	a-	2A/	a	2A/	a-	2e/	a-
2AA,/	-que	2A/	que	2c#X,\	-que	2e,/	-quae
!	!	!	!	!LO:LB:g=original	!	!	!
=17	=17	=17	=17	=17	=17	=17	=17
2D\	a-	2A/	a-	2d\	a-	(2f/	a-
2AA/	.	2G/	.	2c#X\	.	2e/	.
!LO:LB:g=original	!	!LO:LB:g=original	!	!	!	!	!
=18	=18	=18	=18	=18	=18	=18	=18
2BB-/	.	2F/	.	2d\	.	2d/)	.
2GG,/	-que	2G,/	-que	2B-,\	-que	2d,/	-quae
=19	=19	=19	=19	=19	=19	=19	=19
1AA	vi-	1E	vi-	1A	vi-	2d/	vi-
.	.	.	.	.	.	2c#X/	.
=20	=20	=20	=20	=20	=20	=20	=20
1D;	-vae	1F;	-vae	1A;	-vae	1d;	-vae
=21	=21	=21	=21	=21	=21	=21	=21
1F	ad	1F	ad	1A	ad	1cn	ad
=22	=22	=22	=22	=22	=22	=22	=22
2BB-/	cu-	2F/	cu-	2A/	cu-	2d/	cu-
2BB-,/	-jus	2G,/	-jus	2G,/	-jus	2d,/	-ius
!	!	!	!	!	!	!	!LO:LB:g=original
=23	=23	=23	=23	=23	=23	=23	=23
2C/	cu-	2G/	cu-	2B-\	cu-	2e/	cu-
2C#X/	-jus	2G/	-jus	2B-\	-jus	2e/	-ius
!	!	!	!	!LO:LB:g=original	!	!	!
=24	=24	=24	=24	=24	=24	=24	=24
4D\	tran-	4F/	tran-	4A/	tran-	4f/	tran-
4D\	-si-	4A/	-si-	4d\	-si-	4f/	-si-
2D\	-tum	2A,/	-tum	2d,\	-tum	2f,/	-tum
!	!	!LO:LB:g=original	!	!	!	!	!
=25	=25	=25	=25	=25	=25	=25	=25
(2BB-/	sol	(2G/	sol	1d	sol	(2g/	sol
2BBn/)	.	2A-X/)	.	.	.	2f/)	.
=26	=26	=26	=26	=26	=26	=26	=26
2C/	obs-	2G/	obs-	2c\	obs-	2e/	ob-
2C/	-cu-	2A-X/	-cu-	2c\	-cu-	2f/	-scu-
=27	=27	=27	=27	=27	=27	=27	=27
2C/	-ra-	2G/	-ra-	2c\	-ra-	2f/	-ra-
2C/	-tus	2G/	-tus	2c\	-tus	2e/	-tus
=28	=28	=28	=28	=28	=28	=28	=28
1F;	est	1A;	est	1c;	est	1f;	est
=29	=29	=29	=29	=29	=29	=29	=29
2F\	Nam	2c\	Nam	2f\	Nam	2a/	Nam
2F\	et	2c\	et	2f\	et	2a/	et
!	!	!	!	!LO:LB:g=original	!	!	!
=30	=30	=30	=30	=30	=30	=30	=30
2c\	il-	2c\	il-	2e\	il-	2g/	il-
2B-\	-le	2d\	-le	2d,\	-le	2g,/	-le
!LO:LB:g=original	!	!	!	!	!	!	!
=31	=31	=31	=31	=31	=31	=31	=31
2A\	il-	2c#X\	il-	2e\	il-	2a/	il-
2D\	-le	2A/	-le	2d\	-le	2f/	-le
!	!	!LO:LB:g=original	!	!	!	!	!LO:LB:g=original
=32	=32	=32	=32	=32	=32	=32	=32
2G\	cap-	2.B-\	cap-	2d\	cap-	2g/	ca-
2C/	-tus	.	.	2c\	-tus	2e/	-ptus
.	.	4G/	-tus	.	.	.	.
=33	=33	=33	=33	=33	=33	=33	=33
1F;	est	1A;	est	1c	est	1f;,	est
=34	=34	=34	=34	=34	=34	=34	=34
!LO:TX:a:t=2	!	!	!	!	!	!	!
0r	.	2A/	qui	2c\	qui	2f/	qui
.	.	2A/	cap-	2c\	cap-	2f/	cap-
=35	=35	=35	=35	=35	=35	=35	=35
.	.	2G/	-ti-	2c\	-ti-	2e/	-ti-
.	.	2G,/	-vum	2B-,\	-vum	2c,/	-vum
!	!	!	!	!LO:PB:g=original	!	!	!
=36	=36	=36	=36	=36	=36	=36	=36
2G\	qui	2G/	qui	2B-\	qui	2d/	qui
2C/	cap-	2G/	cap-	2B-\	cap-	2e/	cap-
=37	=37	=37	=37	=37	=37	=37	=37
2F\	-ti-	2F/	-ti-	2A/	-ti-	2f/	-ti-
2F,\	-vum	2A,/	-vum	2c,\	-vum	2f,/	-vum
!LO:PB:g=original	!	!LO:PB:g=original	!	!	!	!	!
=38	=38	=38	=38	=38	=38	=38	=38
(2E\	te-	(2B-\	te-	1c	te-	(2g/	te-
2F\)	.	2A/)	.	.	.	2f/)	.
=39	=39	=39	=39	=39	=39	=39	=39
2C/	-ne-	2G/	-ne-	2c\	-ne-	2e/	-ne-
!	!	!	!	!LO:TX:t=P:problem:poprawka z 4B-	!	!	!
2BB-,/	-bat	2E,/	-bat	2G,/	-bat	2c,/	-bat
=40	=40	=40	=40	=40	=40	=40	=40
2AA/	pri-	(4F/	pri-	2c\	pri-	2f/	pri-
.	.	4A/)	.	.	.	.	.
2BBn/	-mum	2A-X,/	-mum	2d\	-mum	2f/	-mum
!	!	!	!	!	!	!	!LO:LB:g=original
=41	=41	=41	=41	=41	=41	=41	=41
2.C/	ho-	2.G/	ho-	2.c\	ho-	2.f/	ho-
4C/	-mi-	4G/	-mi-	4c\	-mi-	4e/	-mi-
=42	=42	=42	=42	=42	=42	=42	=42
!	!	!LO:TX:t=P:problem=w tekscie słownym num poprawione na nem ołówkiem	!	!	!	!	!
1F;	-nem	1An;	-nem	1c;	-nem	1f;	-nem,
!	!	!	!	!LO:LB:g=original	!	!	!
=43	=43	=43	=43	=43	=43	=43	=43
!LO:TX:a:t=2	!	!	!	!	!	!	!
0r	.	(1F	Ho-	(1c	Ho-	1a	Ho-
=44	=44	=44	=44	=44	=44	=44	=44
.	.	2c\)	.	2e\)	.	2g/	.
.	.	4B-\	-di-	4e\	-di-	4f/	-di-
.	.	4B-\	-e	4e\	-ae	4f,/	-e
!	!	!LO:LB:g=original	!	!	!	!	!
=45	=45	=45	=45	=45	=45	=45	=45
2B-\	por-	2d\	por-	2d\	por-	2f/	por-
2B-\	-tas	2d\	-tas	2e\	-tas	2g/	-tas
!LO:LB:g=original	!	!	!	!	!	!	!
=46	=46	=46	=46	=46	=46	=46	=46
2A\	mor-	2c#X\	mor-	2e\	mor-	2a/	mor-
2A\	-tis	2c#,\	-tis	2e\	-tis	2a/	-tis
=47	=47	=47	=47	=47	=47	=47	=47
!LO:TX:a:t=2	!	!	!	!LO:TX:a:t=1	!	!LO:TX:a:t=1	!
0r	.	(2cn\	et	1r	.	1r	.
.	.	4d\	.	.	.	.	.
.	.	4e\)	.	.	.	.	.
=48	=48	=48	=48	=48	=48	=48	=48
.	.	2f\	se-	2A/	se-	2c/	se-
.	.	2c\	-ras	2A/	-ras	2f/	-ras
=49	=49	=49	=49	=49	=49	=49	=49
2F\	se-	2A/	se-	2c\	se-	2f/	ser-
4E\	.	4B-\	.	2c\	-ras	4g/	.
4F\	-ras	4A/	-ras	.	.	4f/	-as
!	!	!LO:LB:g=original	!	!LO:LB:g=original	!	!	!LO:LB:g=original
=50	=50	=50	=50	=50	=50	=50	=50
4C/	pa-	4G/	pa-	4c\	pa-	4e/	pe-
4C/	-ri-	4F/	-ri-	4B-X\	-ri-	4d/	-ri-
2C,/	-ter	2E,/	-ter	2G,/	-ter	2c,/	-ter
=51	=51	=51	=51	=51	=51	=51	=51
(2GG/	Sal-	1G	Sal-	(2B-\	Sal-	(2d/	sal-
2C/)	.	.	.	2c\)	.	2e/)	.
=52	=52	=52	=52	=52	=52	=52	=52
2AA/	-va-	2F/	-va-	2c\	-va-	2f/	-va-
2BBn,/	-tor	2A-X/	-tor	2d,\	-tor	2f,/	-tor
!LO:LB:g=original	!	!	!	!	!	!	!
=53	=53	=53	=53	=53	=53	=53	=53
[1C	no-	(2G/	no-	[1c	no-	2e/	no-
!	!	!LO:TX:t=P:problem=kasownik dopisany ołówkiem	!	!	!	!	!
.	.	2An/	.	.	.	[2f/	.
=54	=54	=54	=54	=54	=54	=54	=54
2C/]	.	2A/)	.	2c\]	.	2f/]	.
4C,/	-ster	4A,/	-ster	4c,\	-ster	4f,/	-ster
4C/	dis-	4A/	dis-	4c\	dis-	4f/	dis-
=55	=55	=55	=55	=55	=55	=55	=55
1C	-ru-	1G	-ru-	1c	-ru-	1e	-rum-
=56	=56	=56	=56	=56	=56	=56	=56
1FF; 1F	-pit.	1A;	-pit	1c	-pit.	1f;	-pit.
==	==	==	==	==	==	==	==
*-	*-	*-	*-	*-	*-	*-	*-
!!!system-decoration: [(s1,s2,s3,s4)]
!!!ENC: Jacek Iwaszko
!!!END: 2023-04-04
!!!ENC: Jacek Iwaszko
!!!END: 2023-04-04
